X: 10
T: Ol'  Bob
B: canberra pickers and fiddlers
B: tunes
M:4/4
L:1/8
R: reel
Q: 1/4=100
K:A
V:1 
+slide+"A"[e3e3][ee] [e2e2][ce]-[ee]-|[ee]fec B2A2|"D"[FA][AA]-[AA][FA]- [A2A2][FA]-[AA]-|[AA]BAG F D3D|
"A"EE E2 EFEC|    A,CEF A2 AB|ce-ef ecAc|1"E"B""cBG "A"A2A2:|2"E"BcBG "A"A2||
|:""AF|"A"ECEA B-ccB|"D"[A2A2][AA]G F-GAF|"A"ECEA FAAB|"E"cABc B2cd|
"A"efed cBAG|"D"FAAF [A3e3]e|"A"cded cBAc|"E"BcBG "A"A2:|
% abcbook-tune_id 63ae8f1c7ef000b8ab2c4172
% abcbook-tune_composer_id 
% abcbook-link-0 https://www.youtube.com/watch?v=s4iqfYFBNfU
% abcbook-boost 2
% abcbook-difficulty 0
% abcbook-tags canberra pickers and fiddlers,old time tunes,© free
% abcbook-tablature 
% abcbook-transpose 
% abcbook-tuning AEAE
% abcbook-lastupdated 1738396845735
% abcbook-src-url https://tunebook.net/scrape/tunes.abc
% abcbook-soundfonts 
% abcbook-repeats 1


